X:1
T:Partition sans titre
C:Compositeur / Arrangeur
L:1/8
M:4/4
I:linebreak $
K:C
V:1 treble nm="Violon" snm="Vln."
V:1
"C" CDEF G2 EG | c2 E2 G4 | e2 dc"G" B2 G2 | AGAB A2 G2 |"C" CDEF G2 EG | c2 E2 G4 | %6
 e2 dc"G" B2 G2 | AGAB"C" c4 ::"C" GBcd eedc | d2 e2"F" f4 | AGAB A2 GF |"C" EFGA G4 | %12
"C" GBcd eedc | d2 e2"F" f4 | AGAB A2 G2 | AGAB"C" c4 :| %16
